symbolic/64x64/places/folder-custom-templates-open.svg

<svg xmlns="http://www.w3.org/2000/svg" width="64" height="64" version="1"><rect style="opacity:.2" width="56" height="36" x="4" y="22" rx="2.8" ry="2.8"/><path style="fill:#value_dark" d="M4 46.2C4 47.751 5.249 49 6.8 49h50.4c1.551 0 2.8-1.249 2.8-2.8V15.8c0-1.551-1.249-2.8-2.8-2.8H32c-4.2 0-5.6-6-9.8-6H6.8A2.794 2.794 0 0 0 4 9.8"/><rect style="opacity:.2" width="56" height="30" x="4" y="26" rx="2.8" ry="2.8"/><rect style="fill:#e4e4e4" width="48" height="22" x="8" y="16" rx="2.8" ry="2.8"/><rect style="fill:#value_light" width="56" height="30" x="4" y="27" rx="2.8" ry="2.8"/><path style="opacity:.1;fill:#fff" d="M6.8 7C5.25 7 4 8.25 4 9.8v1.001A2.795 2.795 0 0 1 6.8 8H22.2c4.2 0 5.601 6 9.801 6h25.199A2.796 2.796 0 0 1 60 16.801v-1A2.796 2.796 0 0 0 57.199 13H32c-4.2 0-5.601-6-9.801-6z"/><path style="fill:#323232" d="M25.5 32c-.831 0-1.5.669-1.5 1.5V45h1v-1h1V34h8v4h4v13h1v-1h1V37l-5-5zM39 51v1h1v-1zm-1 0h-1v1h1zm-1 0v-1h-1v1zm-1 0h-1v1h1zm-1 0v-1h-1v1zm-1 0h-1v1h1zm-1 0v-1h-1v1zm-1 0h-1v1h1zm-1 0v-1h-1v1zm-1 0h-1v1h1zm-1 0v-1h-1v1zm-1 0h-1v1h1zm-1 0v-1h-1v1zm-1 0h-1v1h1zm-1 0v-1h-1v1zm0-1h1v-1h-1zm0-1v-1h-1v1zm0-1h1v-1h-1zm0-1v-1h-1v1zm0-1h1v-1h-1z"/></svg>

<svg xmlns="http://www.w3.org/2000/svg" width="64" height="64" version="1">
 <rect style="opacity:0.2" width="56" height="36" x="4" y="22" rx="2.8" ry="2.8"/>
 <path style="fill:#value_dark" d="M 4,46.2 C 4,47.751 5.2488,49 6.8,49 H 57.2 C 58.751,49 60,47.751 60,46.2 V 15.8 C 60,14.249 58.751,13 57.2,13 H 32 C 27.8,13 26.4,7 22.2,7 H 6.8 C 5.2488,7 4,8.2488 4,9.8"/>
 <rect style="opacity:0.2" width="56" height="30" x="4" y="26" rx="2.8" ry="2.8"/>
 <rect style="fill:#e4e4e4" width="48" height="22" x="8" y="16" rx="2.8" ry="2.8"/>
 <rect style="fill:#value_light" width="56" height="30" x="4" y="27" rx="2.8" ry="2.8"/>
 <path style="opacity:0.1;fill:#ffffff" d="M 6.8008,7 C 5.2496,7 4,8.2496 4,9.8008 V 10.801 C 4,9.2496 5.2496,8 6.8008,8 H 22.199 C 26.399,8 27.8,14 32,14 H 57.199 C 58.75,14 60,15.25 60,16.801 V 15.801 C 60,14.25 58.75,13 57.199,13 H 32 C 27.8,13 26.399,7 22.199,7 Z"/>
 <path style="fill:#323232" d="M 25.5,32 C 24.669,32 24,32.669 24,33.5 V 45 H 25 V 44 H 26 V 34 H 34 V 38 H 38 V 50 51 H 39 V 50 H 40 V 37 L 35,32 Z M 39,51 V 52 H 40 V 51 Z M 38,51 H 37 V 52 H 38 Z M 37,51 V 50 H 36 V 51 Z M 36,51 H 35 V 52 H 36 Z M 35,51 V 50 H 34 V 51 Z M 34,51 H 33 V 52 H 34 Z M 33,51 V 50 H 32 V 51 Z M 32,51 H 31 V 52 H 32 Z M 31,51 V 50 H 30 V 51 Z M 30,51 H 29 V 52 H 30 Z M 29,51 V 50 H 28 V 51 Z M 28,51 H 27 V 52 H 28 Z M 27,51 V 50 H 26 V 51 Z M 26,51 H 25 V 52 H 26 Z M 25,51 V 50 H 24 V 51 Z M 25,50 H 26 V 49 H 25 Z M 25,49 V 48 H 24 V 49 Z M 25,48 H 26 V 47 H 25 Z M 25,47 V 46 H 24 V 47 Z M 25,46 H 26 V 45 H 25 Z"/>
</svg>
